;FLAVOR:Marlin
;TIME:5849
;Filament used: 4.60196m
;Layer height: 0.2
;MINX:72.627
;MINY:90.412
;MINZ:0.2
;MAXX:139.7
;MAXY:129.59
;MAXZ:48
;Generated with Cura_SteamEngine 5.4.0
M82 ;absolute extrusion mode
; Ender 3 Custom Start G-code
G92 E0 ; Reset Extruder
G28 ; Home all axes
M104 S175 ; Start heating up the nozzle most of the way
M190 S60 ; Start heating the bed, wait until target temperature reached
M109 S200 ; Finish heating the nozzle
G1 Z2.0 F3000 ; Move Z Axis up little to prevent scratching of Heat Bed
G1 X0.1 Y20 Z0.3 F5000.0 ; Move to start position
G1 X0.1 Y200.0 Z0.3 F1500.0 E15 ; Draw the first line
G1 X0.4 Y200.0 Z0.3 F5000.0 ; Move to side a little
G1 X0.4 Y20 Z0.3 F1500.0 E30 ; Draw the second line
G92 E0 ; Reset Extruder
G1 Z2.0 F3000 ; Move Z Axis up little to prevent scratching of Heat Bed
G1 X5 Y20 Z0.3 F5000.0 ; Move over to prevent blob squish
G92 E0
G92 E0
G1 F1500 E-6.5
;LAYER_COUNT:240
;LAYER:0
M107
G0 F6000 X77.815 Y94.563 Z0.2
;TYPE:SKIRT
G1 F1500 E0
G1 F1200 X78.64 Y93.978 E0.05046
G1 X79.461 Y93.495 E0.09798
G1 X80.107 Y93.176 E0.13392
G1 X80.677 Y92.917 E0.16516
G1 X81.519 Y92.578 E0.21044
G1 X82.606 Y92.251 E0.26707
G1 X83.872 Y92.008 E0.33139
G1 X84.787 Y91.903 E0.37734
G1 X85.715 Y91.831 E0.42378
G1 X107.964 Y90.482 E1.53582
G1 X109.266 Y90.424 E1.60084
G1 X110.352 Y90.412 E1.65503
G1 X110.862 Y90.424 E1.68048
G1 X111.627 Y90.457 E1.71868
G1 X112.187 Y90.497 E1.74669
G1 X112.868 Y90.562 E1.78082
G1 X113.471 Y90.637 E1.81113
G1 X114.461 Y90.788 E1.8611
G1 X115.245 Y90.93 E1.90085
G1 X115.7 Y91.026 E1.92405
G1 X116.494 Y91.216 E1.96478
G1 X117.609 Y91.522 E2.02246
G1 X118.22 Y91.711 E2.05437
G1 X119.14 Y92.025 E2.10287
G1 X119.799 Y92.274 E2.13802
G1 X120.758 Y92.681 E2.18999
G1 X121.25 Y92.909 E2.21704
G1 X122.215 Y93.387 E2.27077
G1 X122.669 Y93.625 E2.29634
G1 X123.496 Y94.094 E2.34378
G1 X124.107 Y94.468 E2.37952
G1 X124.744 Y94.878 E2.41731
G1 X125.15 Y95.155 E2.44183
G1 X125.681 Y95.537 E2.47447
G1 X126.088 Y95.843 E2.49987
G1 X126.74 Y96.359 E2.54135
G1 X127.181 Y96.727 E2.57001
G1 X127.765 Y97.242 E2.60885
G1 X128.523 Y97.958 E2.66088
G1 X128.959 Y98.402 E2.69192
G1 X129.836 Y99.349 E2.75631
G1 X130.337 Y99.924 E2.79436
G1 X130.647 Y100.303 E2.81879
G1 X131.054 Y100.826 E2.85185
G1 X131.715 Y101.741 E2.90817
G1 X132.053 Y102.248 E2.93857
G1 X132.683 Y103.253 E2.99775
G1 X133.155 Y104.089 E3.04564
G1 X133.576 Y105.01 E3.09616
G1 X133.764 Y105.481 E3.12147
G1 X134.065 Y106.337 E3.16673
G1 X134.345 Y107.439 E3.22346
G1 X134.526 Y108.668 E3.28544
G1 X134.562 Y109.065 E3.30532
G1 X134.604 Y110.133 E3.35865
G1 X134.556 Y111.134 E3.40865
G1 X134.443 Y112.022 E3.45331
G1 X134.243 Y113.03 E3.50458
G1 X133.893 Y114.19 E3.56502
G1 X133.747 Y114.588 E3.58617
G1 X133.359 Y115.513 E3.63622
G1 X132.989 Y116.232 E3.67656
G1 X132.609 Y116.885 E3.71425
G1 X132.208 Y117.524 E3.75189
G1 X131.884 Y118.014 E3.7812
G1 X131.376 Y118.741 E3.82545
G1 X130.765 Y119.546 E3.87587
G1 X130.405 Y119.987 E3.90427
G1 X129.676 Y120.828 E3.95979
G1 X129.113 Y121.442 E4.00135
G1 X128.6 Y121.967 E4.03798
G1 X128.189 Y122.36 E4.06635
G1 X127.506 Y122.978 E4.1123
G1 X126.417 Y123.894 E4.18329
G1 X125.959 Y124.254 E4.21236
G1 X125.302 Y124.734 E4.25295
G1 X124.375 Y125.364 E4.30887
G1 X123.525 Y125.891 E4.35877
G1 X122.915 Y126.24 E4.39383
G1 X122.294 Y126.577 E4.42908
G1 X121.778 Y126.84 E4.45797
G1 X121.169 Y127.131 E4.49164
G1 X120.697 Y127.343 E4.51746
G1 X120.075 Y127.604 E4.55111
G1 X118.997 Y128.017 E4.60871
G1 X118.046 Y128.342 E4.65885
G1 X117.08 Y128.631 E4.70915
G1 X116.3 Y128.836 E4.74939
G1 X115.151 Y129.09 E4.80809
G1 X114.415 Y129.228 E4.84545
G1 X113.865 Y129.313 E4.87322
G1 X113.008 Y129.415 E4.91628
G1 X111.921 Y129.518 E4.97075
G1 X111.271 Y129.563 E5.00326
G1 X110.736 Y129.581 E5.02996
G1 X109.945 Y129.59 E5.06943
G1 X109.325 Y129.579 E5.10036
G1 X107.928 Y129.517 E5.17013
G1 X85.431 Y128.15 E6.29458
G1 X84.713 Y128.097 E6.3305
G1 X83.761 Y127.982 E6.37834
G1 X82.782 Y127.779 E6.42822
G1 X82.438 Y127.69 E6.44595
G1 X81.57 Y127.426 E6.49121
G1 X80.587 Y127.04 E6.5439
G1 X79.669 Y126.605 E6.59458
G1 X78.771 Y126.078 E6.64653
G1 X78.364 Y125.813 E6.67076
G1 X77.582 Y125.252 E6.71877
G1 X76.852 Y124.628 E6.76668
G1 X76.109 Y123.871 E6.8196
G1 X75.55 Y123.198 E6.86325
G1 X75.265 Y122.826 E6.88663
G1 X74.745 Y122.082 E6.93192
G1 X74.073 Y120.882 E7.00053
G1 X73.864 Y120.447 E7.02461
G1 X73.507 Y119.612 E7.06992
G1 X73.078 Y118.231 E7.14206
G1 X72.951 Y117.706 E7.16901
G1 X72.759 Y116.711 E7.21957
G1 X72.657 Y115.73 E7.26877
G1 X72.638 Y115.229 E7.29378
G1 X72.627 Y114.433 E7.3335
G1 X72.632 Y105.425 E7.78291
G1 X72.647 Y104.884 E7.80991
G1 X72.68 Y104.255 E7.84134
G1 X72.777 Y103.259 E7.89126
G1 X72.9 Y102.551 E7.92711
G1 X73.01 Y102.024 E7.95397
G1 X73.233 Y101.144 E7.99926
G1 X73.603 Y100.088 E8.05509
G1 X74.004 Y99.208 E8.10334
G1 X74.635 Y98.116 E8.16626
G1 X75.041 Y97.503 E8.20294
G1 X75.641 Y96.685 E8.25355
G1 X76.267 Y95.971 E8.30092
G1 X76.73 Y95.511 E8.33349
G1 X77.042 Y95.22 E8.35477
G1 X77.815 Y94.563 E8.40538
G0 F6000 X78.163 Y95.052
G1 F1200 X78.945 Y94.495 E8.45328
G1 X79.727 Y94.033 E8.4986
G1 X80.356 Y93.722 E8.5336
G1 X80.901 Y93.474 E8.56348
G1 X81.743 Y93.135 E8.60876
G1 X82.72 Y92.84 E8.65968
G1 X83.941 Y92.604 E8.72172
G1 X84.833 Y92.501 E8.76652
G1 X85.751 Y92.43 E8.81246
G1 X107.991 Y91.081 E9.92405
G1 X109.273 Y91.024 E9.98808
G1 X110.339 Y91.012 E10.04126
G1 X110.836 Y91.023 E10.06606
G1 X111.584 Y91.055 E10.10341
G1 X112.13 Y91.094 E10.13072
G1 X112.794 Y91.157 E10.164
G1 X113.38 Y91.23 E10.19346
G1 X114.355 Y91.379 E10.24267
G1 X115.122 Y91.517 E10.28155
G1 X115.56 Y91.609 E10.30388
G1 X116.335 Y91.795 E10.34364
G1 X117.45 Y92.101 E10.40133
G1 X118.026 Y92.279 E10.4314
G1 X118.929 Y92.587 E10.479
G1 X119.564 Y92.826 E10.51285
G1 X120.506 Y93.226 E10.56391
G1 X120.984 Y93.447 E10.59018
G1 X121.937 Y93.919 E10.64324
G1 X122.373 Y94.147 E10.66779
G1 X123.183 Y94.606 E10.71424
G1 X123.782 Y94.972 E10.74926
G1 X124.406 Y95.374 E10.78629
G1 X124.8 Y95.643 E10.81009
G1 X125.32 Y96.016 E10.84202
G1 X125.716 Y96.314 E10.86674
G1 X126.356 Y96.82 E10.90745
G1 X126.784 Y97.177 E10.93525
G1 X127.353 Y97.678 E10.97308
G1 X128.095 Y98.378 E11.02397
G1 X128.519 Y98.81 E11.05417
G1 X129.384 Y99.744 E11.11768
G1 X129.873 Y100.304 E11.15477
G1 X130.174 Y100.672 E11.17849
G1 X130.568 Y101.177 E11.21044
G1 X131.216 Y102.074 E11.26565
G1 X131.545 Y102.567 E11.29522
G1 X132.161 Y103.549 E11.35305
G1 X132.609 Y104.338 E11.39832
G1 X133.03 Y105.259 E11.44884
G1 X133.198 Y105.68 E11.47146
G1 X133.499 Y106.536 E11.51673
G1 X133.751 Y107.527 E11.56774
G1 X133.928 Y108.722 E11.62801
G1 X133.964 Y109.119 E11.6479
G1 X134.005 Y110.105 E11.69713
G1 X133.961 Y111.059 E11.74478
G1 X133.854 Y111.907 E11.78742
G1 X133.668 Y112.857 E11.83572
G1 X133.329 Y113.984 E11.89443
G1 X133.193 Y114.357 E11.91424
G1 X132.825 Y115.239 E11.96192
G1 X132.47 Y115.931 E12.00072
G1 X132.101 Y116.566 E12.03736
G1 X131.708 Y117.193 E12.07428
G1 X131.392 Y117.67 E12.10282
G1 X130.884 Y118.397 E12.14707
G1 X130.301 Y119.166 E12.19522
G1 X129.951 Y119.594 E12.2228
G1 X129.233 Y120.423 E12.27752
G1 X128.684 Y121.023 E12.31809
G1 X128.186 Y121.533 E12.35365
G1 X127.786 Y121.915 E12.38125
G1 X127.103 Y122.533 E12.4272
G1 X126.045 Y123.423 E12.49618
G1 X125.605 Y123.77 E12.52413
G1 X124.965 Y124.238 E12.56369
G1 X124.059 Y124.854 E12.61835
G1 X123.227 Y125.37 E12.66719
G1 X122.628 Y125.713 E12.70163
G1 X122.021 Y126.043 E12.7361
G1 X121.52 Y126.299 E12.76417
G1 X120.923 Y126.584 E12.79717
G1 X120.465 Y126.79 E12.82223
G1 X119.86 Y127.044 E12.85496
G1 X118.803 Y127.449 E12.91143
G1 X117.874 Y127.767 E12.96042
G1 X116.927 Y128.051 E13.00975
G1 X116.17 Y128.25 E13.0488
G1 X115.04 Y128.5 E13.10654
G1 X114.323 Y128.635 E13.14294
G1 X113.794 Y128.717 E13.16964
G1 X112.952 Y128.818 E13.21195
G1 X111.879 Y128.919 E13.26572
G1 X111.25 Y128.963 E13.29718
G1 X110.729 Y128.981 E13.32319
G1 X109.955 Y128.99 E13.3618
G1 X109.352 Y128.98 E13.39189
G1 X107.964 Y128.918 E13.46121
G1 X85.475 Y127.552 E14.58526
G1 X84.784 Y127.501 E14.61982
G1 X83.883 Y127.394 E14.66509
G1 X82.904 Y127.191 E14.71497
G1 X82.613 Y127.116 E14.72997
G1 X81.745 Y126.852 E14.77523
G1 X80.843 Y126.497 E14.82359
G1 X79.972 Y126.087 E14.87162
G1 X79.098 Y125.575 E14.92215
G1 X78.714 Y125.325 E14.94501
G1 X77.932 Y124.764 E14.99303
G1 X77.243 Y124.173 E15.03832
G1 X76.538 Y123.452 E15.08862
G1 X76.026 Y122.833 E15.1287
G1 X75.757 Y122.482 E15.15076
G1 X75.237 Y121.738 E15.19605
G1 X74.614 Y120.622 E15.25982
G1 X74.416 Y120.211 E15.28258
G1 X74.059 Y119.376 E15.32788
G1 X73.661 Y118.09 E15.39504
G1 X73.54 Y117.591 E15.42066
G1 X73.356 Y116.648 E15.46859
G1 X73.257 Y115.707 E15.5158
G1 X73.238 Y115.221 E15.54006
G1 X73.227 Y114.433 E15.57938
G1 X73.232 Y105.441 E16.028
G1 X73.246 Y104.915 E16.05425
G1 X73.277 Y104.312 E16.08437
G1 X73.368 Y103.361 E16.13203
G1 X73.487 Y102.674 E16.16682
G1 X73.592 Y102.171 E16.19245
G1 X73.815 Y101.291 E16.23774
G1 X74.15 Y100.335 E16.28828
G1 X74.524 Y99.508 E16.33356
G1 X75.155 Y98.416 E16.39649
G1 X75.525 Y97.857 E16.42993
G1 X76.092 Y97.081 E16.47788
G1 X76.718 Y96.367 E16.52525
G1 X77.14 Y95.949 E16.55489
G1 X77.432 Y95.676 E16.57483
G1 X78.163 Y95.052 E16.62278
G0 F6000 X78.512 Y95.54
G1 F1200 X79.25 Y95.012 E16.66805
G1 X80.032 Y94.55 E16.71337
G1 X80.604 Y94.268 E16.74518
G1 X81.125 Y94.031 E16.77374
G1 X81.967 Y93.692 E16.81902
G1 X82.835 Y93.429 E16.86427
G1 X84.01 Y93.2 E16.924
G1 X84.879 Y93.099 E16.96764
G1 X85.787 Y93.029 E17.01308
G1 X108.018 Y91.68 E18.12423
G1 X109.28 Y91.624 E18.18725
G1 X110.327 Y91.612 E18.23949
G1 X110.81 Y91.622 E18.26359
G1 X111.542 Y91.654 E18.30014
G1 X112.073 Y91.691 E18.3267
G1 X112.721 Y91.753 E18.35918
G1 X113.29 Y91.823 E18.38778
G1 X114.249 Y91.969 E18.43617
G1 X114.998 Y92.104 E18.47414
G1 X115.42 Y92.193 E18.49566
G1 X116.177 Y92.374 E18.53449
G1 X117.273 Y92.674 E18.59118
G1 X117.832 Y92.847 E18.62038
G1 X118.718 Y93.149 E18.66708
G1 X119.353 Y93.388 E18.70093
G1 X120.254 Y93.77 E18.74975
G1 X120.718 Y93.985 E18.77526
G1 X121.659 Y94.45 E18.82763
G1 X122.077 Y94.669 E18.85117
G1 X122.87 Y95.118 E18.89664
G1 X123.457 Y95.477 E18.93097
G1 X124.068 Y95.87 E18.96721
G1 X124.451 Y96.131 E18.99033
G1 X124.959 Y96.495 E19.02151
G1 X125.344 Y96.785 E19.04556
G1 X125.972 Y97.281 E19.08548
G1 X126.388 Y97.628 E19.11251
G1 X126.942 Y98.115 E19.14931
G1 X127.667 Y98.798 E19.199
G1 X128.079 Y99.218 E19.22836
G1 X128.932 Y100.139 E19.29098
G1 X129.409 Y100.685 E19.32716
G1 X129.701 Y101.041 E19.35013
G1 X130.082 Y101.529 E19.38101
G1 X130.717 Y102.407 E19.43507
G1 X131.037 Y102.886 E19.46381
G1 X131.639 Y103.845 E19.5203
G1 X132.087 Y104.634 E19.56557
G1 X132.473 Y105.483 E19.6121
G1 X132.632 Y105.879 E19.63339
G1 X132.933 Y106.735 E19.67866
G1 X133.157 Y107.615 E19.72396
G1 X133.334 Y108.81 E19.78423
G1 X133.366 Y109.172 E19.80236
G1 X133.406 Y110.079 E19.84766
G1 X133.366 Y110.985 E19.8929
G1 X133.265 Y111.793 E19.93353
G1 X133.093 Y112.684 E19.9788
G1 X132.754 Y113.811 E20.03751
G1 X132.639 Y114.127 E20.05429
G1 X132.291 Y114.966 E20.09961
G1 X131.951 Y115.63 E20.13682
G1 X131.593 Y116.247 E20.17241
G1 X131.207 Y116.862 E20.20864
G1 X130.9 Y117.327 E20.23644
G1 X130.406 Y118.035 E20.27951
G1 X129.837 Y118.786 E20.32651
G1 X129.497 Y119.201 E20.35328
G1 X128.79 Y120.018 E20.40718
G1 X128.255 Y120.604 E20.44677
G1 X127.771 Y121.099 E20.48131
G1 X127.383 Y121.47 E20.50809
G1 X126.7 Y122.088 E20.55404
G1 X125.674 Y122.952 E20.62096
G1 X125.25 Y123.286 E20.64789
G1 X124.628 Y123.742 E20.68637
G1 X123.743 Y124.344 E20.73977
G1 X122.929 Y124.849 E20.78756
G1 X122.341 Y125.186 E20.82137
G1 X121.748 Y125.509 E20.85506
G1 X121.261 Y125.758 E20.88235
G1 X120.677 Y126.037 E20.91464
G1 X120.232 Y126.237 E20.93898
G1 X119.645 Y126.484 E20.97075
G1 X118.608 Y126.881 E21.02615
G1 X117.701 Y127.192 E21.07399
G1 X116.774 Y127.471 E21.12228
G1 X116.04 Y127.664 E21.16015
G1 X114.928 Y127.91 E21.21697
G1 X114.231 Y128.042 E21.25236
G1 X113.722 Y128.121 E21.27806
G1 X112.896 Y128.221 E21.31957
G1 X111.837 Y128.32 E21.37263
G1 X111.229 Y128.363 E21.40304
G1 X110.722 Y128.381 E21.42835
G1 X109.964 Y128.39 E21.46617
G1 X109.379 Y128.381 E21.49536
G1 X108 Y128.319 E21.56423
G1 X85.519 Y126.954 E22.68788
G1 X84.855 Y126.905 E22.72109
G1 X83.954 Y126.798 E22.76636
G1 X83.053 Y126.61 E22.81228
G1 X82.788 Y126.542 E22.82593
G1 X81.92 Y126.278 E22.87119
G1 X81.097 Y125.953 E22.91534
G1 X80.275 Y125.569 E22.9606
G1 X79.425 Y125.072 E23.00972
G1 X79.062 Y124.836 E23.03132
G1 X78.323 Y124.309 E23.07661
G1 X77.634 Y123.718 E23.1219
G1 X77 Y123.069 E23.16716
G1 X76.502 Y122.468 E23.2061
G1 X76.249 Y122.138 E23.22685
G1 X75.729 Y121.394 E23.27213
G1 X75.139 Y120.331 E23.33279
G1 X74.968 Y119.975 E23.35249
G1 X74.611 Y119.14 E23.3978
G1 X74.244 Y117.948 E23.46002
G1 X74.129 Y117.475 E23.48431
G1 X73.953 Y116.585 E23.52957
G1 X73.857 Y115.683 E23.57482
G1 X73.838 Y115.213 E23.59829
G1 X73.827 Y114.433 E23.63721
G1 X73.832 Y105.456 E24.08507
G1 X73.845 Y104.945 E24.11057
G1 X73.874 Y104.368 E24.1394
G1 X73.959 Y103.464 E24.1847
G1 X74.075 Y102.796 E24.21852
G1 X74.174 Y102.318 E24.24288
G1 X74.397 Y101.438 E24.28817
G1 X74.697 Y100.582 E24.33342
G1 X75.071 Y99.755 E24.3787
G1 X75.674 Y98.717 E24.43859
G1 X76.01 Y98.21 E24.46894
G1 X76.544 Y97.476 E24.51422
G1 X77.141 Y96.793 E24.55948
G1 X77.55 Y96.387 E24.58823
G1 X77.823 Y96.131 E24.6069
G1 X78.512 Y95.54 E24.65219
G1 F1500 E18.15219
;MESH:3DBenchy.stl
G0 F6000 X102.737 Y108.661
G0 X103.342 Y110.479
G0 X103.044 Y110.966
;TYPE:WALL-INNER
G1 F1500 E24.65219
G1 F1146.5 X103.401 Y110.918 E24.671
G1 X103.515 Y110.83 E24.67852
G1 X103.667 Y110.457 E24.69955
G1 F1130.3 X103.696 Y109.944 E24.72677
G1 F1121.5 X103.681 Y109.543 E24.74819
G1 F1128.5 X103.599 Y109.214 E24.76618
G1 X103.477 Y109.016 E24.77852
G1 X103.045 Y108.98 E24.80151
G1 F1137.4 X103.044 Y110.966 E24.90604
G0 F6000 X102.492 Y111.595
;TYPE:WALL-OUTER
G1 F1200 X102.782 Y111.577 E24.92054
G1 X103.166 Y111.569 E24.9397
G1 X103.602 Y111.512 E24.96164
G1 X103.852 Y111.367 E24.97606
G1 X104.015 Y111.195 E24.98788
G1 X104.161 Y110.93 E25.00297
G1 X104.272 Y110.583 E25.02115
G1 X104.325 Y110.057 E25.04753
G1 X104.296 Y109.452 E25.07774
G1 X104.179 Y108.983 E25.10186
G1 X104.008 Y108.68 E25.11922
G1 X103.869 Y108.538 E25.12913
G1 X103.528 Y108.4 E25.14748
G1 X103.14 Y108.362 E25.16693
G1 X102.428 Y108.338 E25.20248
G1 X102.43 Y111.217 E25.34611
G1 X102.412 Y111.508 E25.36066
G1 X102.492 Y111.595 E25.36655
G1 F1500 E18.86655
G0 F6000 X102.796 Y111.209
G0 X103.993 Y110.18
G0 X106.23 Y110.258
G0 X107.232 Y109.787
;TYPE:WALL-INNER
G1 F1500 E25.36655
G1 F933.9 X107.122 Y109.149 E25.40806
G1 F1018.4 X107.107 Y108.99 E25.41745
G0 F6000 X108.135 Y110.612
G0 X108.285 Y111.225
G1 F1200 X108.57 Y110.737 E25.44564
G1 X107.946 Y109.657 E25.50787
G1 X107.767 Y109.122 E25.53601
G1 F1202 X107.772 Y108.823 E25.55091
G1 X107.881 Y108.314 E25.57683
G1 F1200 X108.228 Y107.898 E25.60386
G1 X108.625 Y107.663 E25.62688
G1 X109.127 Y107.584 E25.65223
G1 X109.354 Y107.593 E25.66357
G1 X109.741 Y107.727 E25.684
G1 X109.959 Y107.879 E25.69726
G1 X110.179 Y108.083 E25.71222
G1 X110.403 Y107.883 E25.72721
G1 X110.629 Y107.731 E25.74079
G1 X111.094 Y107.595 E25.76496
G1 X111.433 Y107.585 E25.78189
G1 X111.834 Y107.743 E25.80339
G1 X112.14 Y108.003 E25.82342
G1 X112.495 Y107.709 E25.84642
G1 X112.976 Y107.574 E25.87134
G1 X113.427 Y107.61 E25.89391
G1 X113.929 Y107.794 E25.92059
G1 X114.363 Y108.211 E25.95062
G1 X114.552 Y108.63 E25.97355
G1 X114.744 Y108.261 E25.9943
G1 X115.084 Y107.884 E26.01963
G1 X115.248 Y107.761 E26.02986
G1 X115.483 Y107.666 E26.0425
G1 X115.923 Y107.58 E26.06487
G1 X116.275 Y107.639 E26.08267
G1 X116.639 Y107.853 E26.10374
G1 X116.754 Y107.955 E26.11141
G1 X117.197 Y107.7 E26.13691
G1 X117.393 Y107.634 E26.14723
G1 X117.813 Y107.586 E26.16832
G1 X120.117 Y107.585 E26.28327
G1 X120.375 Y107.639 E26.29642
G1 F1235 X120.738 Y107.799 E26.31565
G1 F1292.6 X121.013 Y108.06 E26.33321
G1 F1254.4 X120.321 Y107.297 E26.38237
